X:13
T: I Vow to Thee My Country
M: 3/4
L: 1/4
%%staves (S1V1 S1V2) | (S2V1 S2V2) 
V: S1V1 clef=treble 
%%MIDI beat 127 125 110 1
V: S1V2 
%%MIDI beat 127 125 110 1
V: S2V1 clef=bass 
%%MIDI beat 127 125 110 1
V: S2V2 
%%MIDI beat 127 125 110 1
K: Bb % key signature
%
%%MIDI program 1 0 % Piano 1
%%MIDI program 2 0 % Piano 1
%%MIDI program 3 0 % Piano 1
%%MIDI program 4 0 % Piano 1
%
% 1
[V: S1V1] [Q:1/4=96] (D/F/) | G3/2 B/ A3/4F// | B/c/ B A | G/A/ G F | D2 (D/F/) | G3/2 B/ A3/4F// |
w: 1.~I * vow to thee, my coun - try, all earth- ly things a- bove, en - tire and whole and
w: 2.~But * there's an- oth- er coun - try I've heard of long a- go, most * dear to them that
[V: S1V2] (D/F/) | F E E3/4E// | F F3/2 F/ | F/F/ (E/ D) C/ | (C B,) B,/D/ | F E E3/4E// | 
[V: S2V1] B, | B,3/2 G,/ C3/4A,// | B, B,3/2 B,/ | B,/C/ B, A, | (A, B,) B, | B,3/2 G,/ C3/4A,// | 
[V: S2V2] B,, | E,3/2 E,/ C,3/4C,// | D, D,3/2 D,/ | E,/E,/ E, F, | G,2 F, | E,3/2 E,/ C,3/4C,// | 
% 5
[V: S1V1] (B/c/) d d | d/c/ B c | B2 (F/D/) | C3/2 C/ B,/D/ | C F (F/D/) | 
w: per - fect, the ser- vice of my love, the * love that asks no quest- ions, the
w: love * her, most great to them that know, we * may not count her arm- ies, we
[V: S1V2] F F (B/A/) | G/G/ G A | F2 (F/D/) | C A, B,/B,/ | A, A, B, | 
[V: S2V1] B, (B,/C/) (D/F/) | F/E/ (E/ D) C/ | D2 (D/B,/) | A, F, G,/G,/ | F, F, (D,/F,/) | 
[V: S2V2] D, D, D, | E, C, F, | B,,2 B,, | A,,3/2 A,,/ G,,/B,,/ | A,, (D,/C,/) B,, | 
% 9
[V: S1V1] C3/2 C/ D/F/ | G2 (G/A/) | B3/4B// A G | .(F3/4F//) B D | C/B,/ C D |
w: love that stands the test, that * lays u- pon the al - tar the dear- est and the
w: may not see her King, her * fort- ress is a faith- ful heart, her pride is suf- fer- 
[V: S1V2] A, (B,/C/) D/F/ | (F E) (E/F/) | G3/4G// D E | C3/4C// F D | C/B,/ A, B, | 
[V: S2V1] F, (G,/A,/) B,/B,/ | B,2 C | D3/4D// A, B, | B,3/4B,// B, B, | A,/G,/ A, B, | 
[V: S2V2] A,,3/2 A,,/ B,,/B,,/ | (E,3/2 D,/) C, | G,3/4G,// F, E, | .(E,3/4E,//) D, D, | C,/B,,/ A,, G,, | 
% 13
[V: S1V1] F2 (D/F/) | G3/2 B/ A3/4F// | .(B/c/) B A | G/A/ G F | D2 .(D/F/) | 
w: best, the * love that ne- ver fault - ers, the love that pays the price, the *
w: ing, and * soul by soul and si- lent- ly her shin- ing bounds in- crease, and her
[V: S1V2] C2 (D/F/) | F E E3/4E// | F/F/ F3/2 F/ | F/F/ (E/ D) C/ | (C B,) B,/D/ | 
[V: S2V1] (B, A,) B, | B,3/2 G,/ C3/4A,// | B,/B,/ B,3/2 B,/ | B,/C/ B, A, | (A, B,) B,/B,/ | 
[V: S2V2] F,,2 B,, | E,3/2 E,/ C,3/4C,// | .(D,/D,/) D,3/2 D,/ | E,/E,/ E, F, | G,2 .(F,/F,/) | 
%
[V: S1V1] G3/2 B/ A3/4F// | B/c/ d d | d/c/ B c | B3 |] 
w: love that makes un- daunt - ed the fin- al sac- ri- fice.
w: ways are ways of gen- tle- ness, and all her paths are peace.
[V: S1V2] F E E3/4E// | F/F/ F (B/A/) | G/G/ G A | F3 |] 
[V: S2V1] B,3/2 G,/ C3/4A,// | B,/B,/ (B,/C/) (D/F/) | F/E/ (E/ D) C/ | D3 |]
[V: S2V2] E,3/2 E,/ C,3/4C,// | D,/D,/ D, D, | E,/E,/ C, F, | B,,3 |]

